img/number-4.svg

<svg width="50" height="50" viewBox="0 0 50 50" fill="none" xmlns="http://www.w3.org/2000/svg">
<g clip-path="url(#clip0_87_53429)">
<path d="M25 3C12.8684 3 3 12.8693 3 25C3 37.1292 12.8684 47 25 47C37.1316 47 47 37.1292 47 25C47 12.8693 37.1316 3 25 3Z" fill="#2A3248"/>
<path d="M24.9993 0C38.7843 0 50 11.2151 50 25.0007C50 38.7863 38.7843 50 24.9993 50C11.2143 50 0 38.7863 0 25.0007C0 11.2151 11.2143 0 24.9993 0ZM25 3C12.8684 3 3 12.8693 3 25C3 37.1292 12.8684 47 25 47C37.1316 47 47 37.1292 47 25C47 12.8693 37.1316 3 25 3ZM28.168 18.44L24.808 27.728L24.7782 27.8298C24.736 28.0256 24.736 28.0256 24.832 28.16L24.8858 28.2205C25.0048 28.328 25.0048 28.328 25.216 28.328H27.784V24.248L28.624 21.704H32.512V28.328H34.408V31.16L32.56 31.64H32.512V35H27.784V31.64H21.136L20.9477 31.6329C20.3937 31.5903 20.3937 31.5903 19.972 31.292C19.48 30.944 19.48 30.944 19.3 30.368C19.12 29.792 19.12 29.792 19.36 29.168L23.368 18.44H28.168ZM13.7296 11.7761C14.2335 12.5642 14.0129 13.6177 13.2357 14.1293C10.8041 15.7312 9.35225 18.4116 9.35225 21.2994C9.35225 22.2386 8.60226 23 7.67613 23C6.7509 23 6 22.2386 6 21.2994C6 17.2539 8.02297 13.5071 11.4106 11.2747C12.1888 10.7622 13.2257 10.988 13.7296 11.7761Z" fill="url(#paint0_linear_87_53429)"/>
</g>
<defs>
<linearGradient id="paint0_linear_87_53429" x1="0" y1="25" x2="50" y2="25" gradientUnits="userSpaceOnUse">
<stop stop-color="#06E8D2"/>
<stop offset="1" stop-color="#FFF200"/>
</linearGradient>
<clipPath id="clip0_87_53429">
<rect width="50" height="50" fill="white"/>
</clipPath>
</defs>
</svg>

<svg width="50" height="50" viewBox="0 0 50 50" xmlns="http://www.w3.org/2000/svg">
    <defs>
        <linearGradient x1="0%" y1="50%" x2="100%" y2="50%" id="mcyo1tw3oa">
            <stop stop-color="#06E8D2" offset="0%"/>
            <stop stop-color="#FFF200" offset="100%"/>
        </linearGradient>
    </defs>
    <g fill-rule="nonzero" fill="none">
        <path d="M25 3C12.868 3 3 12.87 3 25s9.868 22 22 22 22-9.87 22-22S37.132 3 25 3z" fill="#2A3248"/>
        <path d="M25 0c13.784 0 25 11.215 25 25 0 13.786-11.216 25-25 25C11.213 50 0 38.786 0 25 0 11.216 11.214 0 25 0zm0 3C12.868 3 3 12.87 3 25s9.868 22 22 22 22-9.87 22-22S37.132 3 25 3zm3.168 15.44-3.36 9.288c-.144.36.048.6.408.6h2.568v-4.08l.84-2.544h3.888v6.624h1.896v2.832l-1.848.48h-.048V35h-4.728v-3.36h-6.648c-1.368 0-2.256-1.2-1.776-2.472l4.008-10.728h4.8zM13.73 11.776a1.716 1.716 0 0 1-.494 2.353 8.574 8.574 0 0 0-3.884 7.17c0 .94-.75 1.701-1.676 1.701A1.689 1.689 0 0 1 6 21.3c0-4.046 2.023-7.793 5.41-10.025a1.66 1.66 0 0 1 2.32.501z" fill="url(#mcyo1tw3oa)"/>
    </g>
</svg>
